Collapse/img/other/icon_telegram.svg

<svg width="20" height="16" viewBox="0 0 20 16" fill="none" xmlns="http://www.w3.org/2000/svg">
<path d="M7.98763 10.4497L7.67829 14.7493C8.12087 14.7493 8.31255 14.5615 8.54241 14.3359L10.6174 12.3762L14.9169 15.4878C15.7055 15.922 16.261 15.6934 16.4737 14.7709L19.2959 1.70252L19.2967 1.70175C19.5468 0.54984 18.8752 0.0993921 18.1069 0.381981L1.51805 6.65822C0.385897 7.0925 0.403039 7.71619 1.32559 7.99878L5.5667 9.30239L15.4179 3.21095C15.8816 2.90757 16.3031 3.07543 15.9564 3.37881L7.98763 10.4497Z" fill="#9FA4B0"/>
</svg>

<svg width="20" height="16" fill="none" xmlns="http://www.w3.org/2000/svg"><path d="M7.988 10.45l-.31 4.3c.443 0 .635-.188.864-.414l2.075-1.96 4.3 3.112c.789.434 1.344.205 1.557-.717l2.822-13.068v-.001c.25-1.152-.42-1.603-1.19-1.32L1.519 6.658c-1.132.434-1.115 1.058-.192 1.34l4.24 1.304 9.852-6.091c.464-.303.885-.136.538.168l-7.968 7.07z" fill="#9FA4B0"/></svg>
